X: 721
M: 6/8
L: 1/8
K: D
V: 1
|: f |\
(d/e/f/g/a a)fa | e=ce Tf2e | (d/e/f/g/a a)fa | dfd Tf2d |\
geg fdf | e=ce Tf2e | agf edc | dDD D2 :|
V: 2 clef=bass middle=d
z |\
d3 d3 | =c3 c3 | d3 d3 | d3 d3 |\
e3 d3 | =c3 c3 | d3 A3 | D3 d2 :|
|: z |\
d3 d3 | =c3 c3 | d3 d3 | d3 d3 |\
e3 d3 | =c3 c3 | d3 A3 | D3 D2 :|

